X:1
T:G Major                                Jeremiah Ingalls, 1805
T:Joseph Hart, 1759                   87. 87. 87. 87.   
T:Dominion
T:Transcribed from Ingalls' Christian Harmony, 1805.
%%score [ 1 2 3 ]
L:1/8
Q:1/4=115
M:4/4
K:G
V:1 treble nm="Tr." snm="Tr."
V:2 treble-8 nm="T." snm="T."
V:3 bass nm="B." snm="B."
V:1
 G2 G2 B2 B2 | c2 c2 B2 B2 | cB Ac BA GB | AG FA G4 | B2 B2 B2 B2 | c2 c2 B2 B2 | cB AG FG AB | %7
w: 1.~Come, ye Chris- tians,|sing the prai- ses|Of * your * con- * de- *|scen- * ding * God;|Come, and hymn the|bles- sed Je- sus.|Who * hath * washed * us *|
w: 2.~Though we're mean in|Man's o- pin- ion,|He * hath * made * us *|priests * and * kings;|Power and glo- ry|and do- min- ion|To * the * Lamb, * the *|
 G2 F2 G4- | G4 z4 |: c>B A>B c>B A>B | c>B A>B c2 A2 | B>A G>A B>A G>A | B>A G>A B4 | %13
w: in his blood.~|_|We * are * poor, * and *|weak, * and * sil- ly,|And * to * eve- * ry *|e- * vil * prone:|
w: sin- ner sings,~|_|Le- * prous * souls, * un- *|sound * and * fil- thy,|Come * be- * fore * him *|as * you * are;|
 G2 G2 A2 A2 | F2 F2 G2 G2 | G2 G2 F2 F>A | G2 A2 !fermata!B4 :| %17
w: Yet our Je- sus|loves us free- ly,|And re- ceives us *|for his own.|
w: 'Tis the sick man,|not the heal- thy,|Needs the good Phy- *|si- cian's care.|
V:2
 G2 G2 d2 d2 | e2 e2 d2 d2 | ed ce dc Bd | cB Ac B4 | G2 G2 d2 d2 | e2 e2 d2 d2 | ed cB AB cd | %7
w: 3.~Hear the terms that|ne- ver va- ry:|To * re- * pent * and *|to * be- * lieve;|Both of these are|ne- ces- sa- ry;|Both * from * Je- * sus *|
w: 4.~O! be- ware of|fond- ly thin- king|God * ac- * cepts * thee *|for * thy * tears;|Are the shp- wrecked|saved by sin- king?|Can * the * ru- * ined *|
 B2 A2 G4- | G4 z4 |: A>G F>G A>G F>G | A>G F>G A2 D2 | d>c B>c d>c B>c | d>c B>c d4 | %13
w: we re- ceive.~|_|Would- * be * Chris- * tian, *|du- * ly * pon- der|These * in * thine * im- *|par- * tial * mind,|
w: rise by fears?~|_|O! * be- * ware * of *|trust * ill- * groun- ded;|'Tis * but * fan- * cied *|faith * at * most,|
 e2 e2 c2 c2 | d2 d2 B2 B2 | c2 c2 A2 Ac | B2 A2 !fermata!G4 :| %17
w: And let no man|put a- sun- der|What the Lord has *|wise- ly joined.|
w: To be cures and|not be woun- ded,|To be saved be- *|fore you're lost.|
V:3
 G,2 G,2 G,2 G,2 | C,2 C,2 G,2 G,2 | C,2 C,2 D,2 D,2 | D,2 D,2 [G,,G,]4 | G,2 G,2 G,2 G,2 | %5
w: 5.~No big words of|rea- dy tal- kers,|No dry doc- trine|will suf- fice;|Bro- ken hearts and|
 C,2 C,2 G,2 G,2 | C,2 C,2 D,2 D,2 | D,2 D,2 G,,4- | G,,4 z4 |: D,2 D,2 D,2 D,2 | D,2 D,2 D,2 D,2 | %11
w: hum- ble wal- kers,|These are dear in|Je- sus' eyes.~|_|Tin- kling sounds of|dis- pu- ta- tion,|
 G,2 G,2 G,2 G,2 | G,2 G,2 G,4 | C,2 C,2 A,,2 A,,2 | D,2 D,2 G,2 G,2 | C,2 C,2 D,2 D,2 | %16
w: Na- ked know- ledge,|all are vain;|Eve- ry soul that|gains sal- va- tion,|Must and shall be|
 D,2 D,2 !fermata!G,,4 :| %17
w: born a- gain.|

